dist/images/desktop.svg

<svg width="16" height="14" viewBox="0 0 16 14" fill="none" xmlns="http://www.w3.org/2000/svg">
<path d="M14 0.333374H1.99996C1.26663 0.333374 0.666626 0.933374 0.666626 1.66671V9.66671C0.666626 10.4 1.26663 11 1.99996 11H6.66663V12.3334H5.33329V13.6667H10.6666V12.3334H9.33329V11H14C14.7333 11 15.3333 10.4 15.3333 9.66671V1.66671C15.3333 0.933374 14.7333 0.333374 14 0.333374ZM14 9.66671H1.99996V1.66671H14V9.66671Z" fill="white"/>
</svg>

<svg width="16" height="14" fill="none" xmlns="http://www.w3.org/2000/svg"><path d="M14 .333H2c-.733 0-1.333.6-1.333 1.334v8C.667 10.4 1.267 11 2 11h4.667v1.333H5.333v1.334h5.334v-1.334H9.333V11H14c.733 0 1.333-.6 1.333-1.333v-8c0-.734-.6-1.334-1.333-1.334zm0 9.334H2v-8h12v8z" fill="#fff"/></svg>
